X:1
T:Donora, 66.4.666.4
T:Donora, 66.4.666.4
T:William Howard Doane (1832-1915)
T:Public Domain Courtesy of the Cyber Hymnal™
C:William Howard Doane (1832-1915)
Z:Public Domain
Z:Courtesy of the Cyber Hymnal™
%%score ( 1 2 ) ( 3 4 )
L:1/8
Q:1/4=110
M:4/4
K:Eb
V:1 treble 
V:2 treble 
V:3 bass 
V:4 bass 
V:1
 [EG]4 [EB]2 [EA]2 | [EG]3 [DF] E4 | [CE]4 [EA]2 [Ec]2 | [Ec]3 [EB] [GB]4 | [FB]4 [Fc]2 =A2 | %5
 [DB]6 z2 | [DB]4 [E=A]2 [F_A]2 | [FA]3 [EG] [EG]4 | [DB]4 [E=A]2 [F_A]2 | [FA]3 [EG] [EG]4 | %10
 [Ge]4 [EB]2 [EG]2 | [GB]2 [FA]2 ([CG]2 [_CF]2) | [B,E]4 [EG]2 [B,F]2 | [B,E]8 |] %14
V:2
 x8 | x4 E4 | x8 | x8 | x6 (FE) | x8 | x8 | x8 | x8 | x8 | x8 | x8 | x8 | x8 |] %14
V:3
 [E,B,]4 [E,G,]2 [E,C]2 | [E,B,]3 [B,,A,] [E,G,]4 | [A,,A,]4 [C,A,]2 [A,,A,]2 | %3
 [E,A,]3 [E,G,] [E,B,]4 | [F,D]4 [F,E]2 [F,C]2 | [B,,B,]6 z2 | [B,,F,B,]4 [C,F,]2 [D,B,]2 | %7
 [E,B,]3 [E,B,] [E,B,]4 | [B,,F,B,]4 [C,F,]2 [D,B,]2 | [E,B,]3 [E,B,] [E,B,]4 | %10
 [E,B,]4 [E,G,]2 [E,B,]2 | [=E,_D]2 [F,C]2 (B,2 A,2) | [B,,G,]4 [B,,B,]2 [B,,A,]2 | [E,G,]8 |] %14
V:4
 x8 | x8 | x8 | x8 | x8 | x8 | x8 | x8 | x8 | x8 | x8 | x4 A,,4 | x8 | x8 |] %14

